lib/brands/icons/bluetooth.svg

<svg xmlns="http://www.w3.org/2000/svg" fill="none" aria-hidden="true" viewBox="0 0 48 48"><g id="bluetooth-Icon"><g id="Group"><path id="bg" fill="white" d="M24.1442 42C32.5168 42 38.2857 38.2656 38.2857 23.9993C38.2857 9.73366 32.5168 6 24.1442 6C15.7721 6 10 9.73428 10 23.9993C10 38.2657 15.7715 42 24.1442 42Z"/><path id="vector" fill="#0060A9" d="M25.693 14.8886L28.8634 17.8651L25.6949 20.8391L25.693 14.8886V14.8886ZM25.693 33.1089L28.8634 30.1331L25.6949 27.1584L25.693 33.1089V33.1089ZM22.308 23.9988L15.4545 17.548L17.441 15.6835L22.9006 20.8116V8.52247L32.83 17.8437L26.2739 23.9988L32.8312 30.1556L22.9014 39.477V27.187L17.4404 32.3158L15.4537 30.4502L22.308 23.9988V23.9988ZM24.1442 42C32.5168 42 38.2857 38.2656 38.2857 23.9993C38.2857 9.73366 32.5168 6 24.1442 6C15.7721 6 10 9.73428 10 23.9993C10 38.2657 15.7715 42 24.1442 42V42Z"/></g></g></svg>

<svg xmlns="http://www.w3.org/2000/svg" fill="none" aria-hidden="true" viewBox="0 0 48 48"><path fill="#fff" d="M24.144 42c8.373 0 14.142-3.734 14.142-18S32.516 6 24.144 6 10 9.734 10 24s5.772 18 14.144 18Z"/><path fill="#0060A9" d="m25.693 14.889 3.17 2.976-3.168 2.974-.002-5.95Zm0 18.22 3.17-2.976-3.168-2.975-.002 5.95Zm-3.385-9.11-6.853-6.451 1.986-1.864 5.46 5.128V8.522l9.93 9.322-6.557 6.155 6.557 6.157-9.93 9.321v-12.29l-5.46 5.129-1.987-1.866L22.308 24ZM24.144 42c8.373 0 14.142-3.734 14.142-18S32.516 6 24.144 6 10 9.734 10 24s5.772 18 14.144 18Z"/></svg>
